X:0743
T:Mrs. John Stirling's Jig.
M:6/8
L:1/8
Q:3/8=120
I: :: ||
Z:Jack Campin * www.campin.me.uk * 2009
K:D
A   |ded  def|ecA  A2 A |BdB AFD |FEE E2
A   |d>ed def|ecA  a2 g |fed Adc |ddd d2:|
f/g/|aba  afd|bc'b bc'd'|aba afd |fee efg|
     aba  afd|bc'b bc'd'|afd e>de|fdd d2|]

